X: 27846
T: Mother's Delight
R: reel
M: 4/4
K: Ddorian
DE|:F2 FE F2 DE|FDGE FECE|Ddd^c defe|decd ABcA|
d2 dc AGAB|c2 cG E~C3|Dddc AGAB|cAGE EDDE:|
|:FAdA FD (3DDD|EGcG EC (3CCC|FAdA FDDF|EDCE D2 DE:|

